X:17
T:Sliabh na mBan
T:Slievenamon
M:3/4
R:Air
S:phelan-2/42
N:Fix rythm
L:1/8
K:G
D4EF     | G4   c2 | B4 A2 | G4 (3Bdg | a3 gfd/B/  | c6 |
(3ABc d4 | edcB G2 | Bd c4 | B2 A4    |
D4EF     | G4   c2 | B4 A2 | G4 (3Bdg | a3 gfd/B/  | c6 |
(3ABc d4 | edcB G2 | c4 A2 | G4 F2    | G6        ||

